X:1
T:Clear or Cloudy
T:Clear or Cloudy
T:John Dowland
C:John Dowland
%%score [ 1 ( 2 3 ) ]
L:1/8
Q:1/4=100
M:4/4
K:C
V:1 treble-8 nm="Classical Guitar"
V:2 treble-8 nm="Classical Guitar"
V:3 treble-8 
V:1
 z d- dA B2 A2 | G>^F GA B2 B2 | e2 d-d c2 Bd- | dc/B/ A>A G4 | z c- cc d2 B2 | AA cd B2 AA | %6
 c>B AA d3 c/B/ | AG A2 G2 d2 |: d2 ^c2 d2 D2- | DE ^FG AB c2 | c2 G2 GA Bc | d3 A2 c2 G | %12
 G>A B2 A4 ||1[M:2/4] G2 d2 :|2 G4 |] %15
V:2
 [Bdg]2 [Ada]2 dg A^f | [Be]2 e2 [^F^d]4 | ea G/g/g A^f [Bdg]f/e/ | [^FAd]G/d/ [GAd]F/c/ [DGB]4 | %4
 [Gce]2 [ce]2 [Gd]3 g | [Ace]2 [Ace][Adf] [Be]^G/d/ [Ac]>G | Aa- a/g/^f/e/ dg/a/ ba/g/ | %7
 [d^f] g2 f [Bdg] G2 [Ad] |: g3 g ^f>e fg | [^Fa]G A2 FG AB | cd e^f g4 | %11
 [B,D][CEc] [D^FA]>[GB] [CAc]>d [CGe]>A | [G,GB]>^c dG [DGAd]^F/E/ FA ||1 %13
[M:2/4] [G,DGBd] G2 [^FAd] :|2 [G,DGBd]4 |] %15
V:3
 G2 ^F2 [GB]2 D2 | EE B/E/D/C/ B,4 | C2 B,2 A,2 [G,DG]2 | D2 D2 G,4 | C2 GC B,2 G,2 | %5
 A, A,2 D E2 A,2 | A,A, D>C B,/A,/ G,2 G, | D2 D2 G,3 ^F |: [EG][DB] EA/G/ [DAd]3 E | D3 E D2 CD | %10
 E^F [CG]A [G,B]c dA, | x8 | x8 ||1[M:2/4] x4 :|2 x4 |] %15

